images/icons/github.svg

<?xml version="1.0" encoding="UTF-8"?>
<!DOCTYPE svg PUBLIC "-//W3C//DTD SVG 1.1//EN" "http://www.w3.org/Graphics/SVG/1.1/DTD/svg11.dtd">
<svg xmlns="http://www.w3.org/2000/svg" version="1.1" width="256px" height="256px" style="shape-rendering:geometricPrecision; text-rendering:geometricPrecision; image-rendering:optimizeQuality; fill-rule:evenodd; clip-rule:evenodd" xmlns:xlink="http://www.w3.org/1999/xlink">
<g><path style="opacity:1" fill="#262736" d="M 31.5,-0.5 C 95.5,-0.5 159.5,-0.5 223.5,-0.5C 223.5,4.83333 223.5,10.1667 223.5,15.5C 164.833,15.5 106.167,15.5 47.5,15.5C 47.5,20.8333 47.5,26.1667 47.5,31.5C 42.1667,31.5 36.8333,31.5 31.5,31.5C 31.5,36.8333 31.5,42.1667 31.5,47.5C 26.1667,47.5 20.8333,47.5 15.5,47.5C 15.5,106.167 15.5,164.833 15.5,223.5C 10.1667,223.5 4.83333,223.5 -0.5,223.5C -0.5,159.5 -0.5,95.5 -0.5,31.5C 4.83333,31.5 10.1667,31.5 15.5,31.5C 15.5,26.1667 15.5,20.8333 15.5,15.5C 20.8333,15.5 26.1667,15.5 31.5,15.5C 31.5,10.1667 31.5,4.83333 31.5,-0.5 Z"/></g>
<g><path style="opacity:1" fill="#000000" d="M 223.5,15.5 C 228.833,15.5 234.167,15.5 239.5,15.5C 239.5,20.8333 239.5,26.1667 239.5,31.5C 244.833,31.5 250.167,31.5 255.5,31.5C 255.5,95.5 255.5,159.5 255.5,223.5C 250.167,223.5 244.833,223.5 239.5,223.5C 239.5,228.833 239.5,234.167 239.5,239.5C 234.167,239.5 228.833,239.5 223.5,239.5C 223.5,244.833 223.5,250.167 223.5,255.5C 202.167,255.5 180.833,255.5 159.5,255.5C 159.5,244.833 159.5,234.167 159.5,223.5C 170.167,223.5 180.833,223.5 191.5,223.5C 191.5,218.167 191.5,212.833 191.5,207.5C 196.833,207.5 202.167,207.5 207.5,207.5C 207.5,202.167 207.5,196.833 207.5,191.5C 212.833,191.5 218.167,191.5 223.5,191.5C 223.5,154.167 223.5,116.833 223.5,79.5C 218.167,79.5 212.833,79.5 207.5,79.5C 207.5,68.8333 207.5,58.1667 207.5,47.5C 202.167,47.5 196.833,47.5 191.5,47.5C 191.5,42.1667 191.5,36.8333 191.5,31.5C 186.167,31.5 180.833,31.5 175.5,31.5C 175.5,36.8333 175.5,42.1667 175.5,47.5C 170.167,47.5 164.833,47.5 159.5,47.5C 159.5,52.8333 159.5,58.1667 159.5,63.5C 154.167,63.5 148.833,63.5 143.5,63.5C 143.5,58.1667 143.5,52.8333 143.5,47.5C 132.833,47.5 122.167,47.5 111.5,47.5C 111.5,52.8333 111.5,58.1667 111.5,63.5C 106.167,63.5 100.833,63.5 95.5,63.5C 95.5,58.1667 95.5,52.8333 95.5,47.5C 90.1667,47.5 84.8333,47.5 79.5,47.5C 79.5,42.1667 79.5,36.8333 79.5,31.5C 74.1667,31.5 68.8333,31.5 63.5,31.5C 63.5,36.8333 63.5,42.1667 63.5,47.5C 58.1667,47.5 52.8333,47.5 47.5,47.5C 47.5,58.1667 47.5,68.8333 47.5,79.5C 42.1667,79.5 36.8333,79.5 31.5,79.5C 31.5,116.833 31.5,154.167 31.5,191.5C 36.8333,191.5 42.1667,191.5 47.5,191.5C 47.5,196.833 47.5,202.167 47.5,207.5C 52.8333,207.5 58.1667,207.5 63.5,207.5C 63.5,212.833 63.5,218.167 63.5,223.5C 74.1667,223.5 84.8333,223.5 95.5,223.5C 95.5,234.167 95.5,244.833 95.5,255.5C 74.1667,255.5 52.8333,255.5 31.5,255.5C 31.5,250.167 31.5,244.833 31.5,239.5C 26.1667,239.5 20.8333,239.5 15.5,239.5C 15.5,234.167 15.5,228.833 15.5,223.5C 15.5,164.833 15.5,106.167 15.5,47.5C 20.8333,47.5 26.1667,47.5 31.5,47.5C 31.5,42.1667 31.5,36.8333 31.5,31.5C 36.8333,31.5 42.1667,31.5 47.5,31.5C 47.5,26.1667 47.5,20.8333 47.5,15.5C 106.167,15.5 164.833,15.5 223.5,15.5 Z"/></g>
<g><path style="opacity:1" fill="#fefffe" d="M 159.5,255.5 C 138.167,255.5 116.833,255.5 95.5,255.5C 95.5,244.833 95.5,234.167 95.5,223.5C 84.8333,223.5 74.1667,223.5 63.5,223.5C 63.5,218.167 63.5,212.833 63.5,207.5C 58.1667,207.5 52.8333,207.5 47.5,207.5C 47.5,202.167 47.5,196.833 47.5,191.5C 42.1667,191.5 36.8333,191.5 31.5,191.5C 31.5,154.167 31.5,116.833 31.5,79.5C 36.8333,79.5 42.1667,79.5 47.5,79.5C 47.5,68.8333 47.5,58.1667 47.5,47.5C 52.8333,47.5 58.1667,47.5 63.5,47.5C 63.5,42.1667 63.5,36.8333 63.5,31.5C 68.8333,31.5 74.1667,31.5 79.5,31.5C 79.5,36.8333 79.5,42.1667 79.5,47.5C 84.8333,47.5 90.1667,47.5 95.5,47.5C 95.5,52.8333 95.5,58.1667 95.5,63.5C 100.833,63.5 106.167,63.5 111.5,63.5C 111.5,58.1667 111.5,52.8333 111.5,47.5C 122.167,47.5 132.833,47.5 143.5,47.5C 143.5,52.8333 143.5,58.1667 143.5,63.5C 148.833,63.5 154.167,63.5 159.5,63.5C 159.5,58.1667 159.5,52.8333 159.5,47.5C 164.833,47.5 170.167,47.5 175.5,47.5C 175.5,42.1667 175.5,36.8333 175.5,31.5C 180.833,31.5 186.167,31.5 191.5,31.5C 191.5,36.8333 191.5,42.1667 191.5,47.5C 196.833,47.5 202.167,47.5 207.5,47.5C 207.5,58.1667 207.5,68.8333 207.5,79.5C 212.833,79.5 218.167,79.5 223.5,79.5C 223.5,116.833 223.5,154.167 223.5,191.5C 218.167,191.5 212.833,191.5 207.5,191.5C 207.5,196.833 207.5,202.167 207.5,207.5C 202.167,207.5 196.833,207.5 191.5,207.5C 191.5,212.833 191.5,218.167 191.5,223.5C 180.833,223.5 170.167,223.5 159.5,223.5C 159.5,234.167 159.5,244.833 159.5,255.5 Z"/></g>
</svg>

<svg xmlns="http://www.w3.org/2000/svg" width="256" height="256" style="shape-rendering:geometricPrecision;text-rendering:geometricPrecision;image-rendering:optimizeQuality;fill-rule:evenodd;clip-rule:evenodd"><path style="opacity:1" fill="#262736" d="M31.5-.5h192v16h-176v16h-16v16h-16v176h-16v-192h16v-16h16v-16z"/><path style="opacity:1" d="M223.5 15.5h16v16h16v192h-16v16h-16v16h-64v-32h32v-16h16v-16h16v-112h-16v-32h-16v-16h-16v16h-16v16h-16v-16h-32v16h-16v-16h-16v-16h-16v16h-16v32h-16v112h16v16h16v16h32v32h-64v-16h-16v-192h16v-16h16v-16h176z"/><path style="opacity:1" fill="#fefffe" d="M159.5 255.5h-64v-32h-32v-16h-16v-16h-16v-112h16v-32h16v-16h16v16h16v16h16v-16h32v16h16v-16h16v-16h16v16h16v32h16v112h-16v16h-16v16h-32v32z"/></svg>
